assets/avatar/avatar3-7.svg

<svg fill="none" height="200" viewBox="0 0 200 200" width="200" xmlns="http://www.w3.org/2000/svg" xmlns:xlink="http://www.w3.org/1999/xlink"><linearGradient id="a" gradientUnits="userSpaceOnUse" x1="103.252" x2="103.252" y1="32.698" y2="155.856"><stop offset="0" stop-color="#d39c72"/><stop offset="1" stop-color="#d39c72"/></linearGradient><linearGradient id="b"><stop offset="0"/><stop offset="1"/></linearGradient><linearGradient id="c" gradientUnits="userSpaceOnUse" x1="107.04" x2="107.04" xlink:href="#b" y1="102.912" y2="22.2585"/><linearGradient id="d" gradientUnits="userSpaceOnUse" x1="100" x2="100" xlink:href="#b" y1="202.872" y2="135.333"/><linearGradient id="e" gradientUnits="userSpaceOnUse" x1="100" x2="100" y1="202.872" y2="135.333"><stop offset="0" stop-color="#e6864e"/><stop offset="1" stop-color="#e67240"/></linearGradient><linearGradient id="f" gradientUnits="userSpaceOnUse" x1="100" x2="100" xlink:href="#b" y1="157.333" y2="189.333"/><clipPath id="g"><rect height="200" rx="100" transform="matrix(-1 0 0 1 200 0)" width="200"/></clipPath><mask id="h" height="68" maskUnits="userSpaceOnUse" width="160" x="20" y="135"><path d="m30 160.205c-6.3467 12.905-10 42.667-10 42.667h160s-3.655-29.765-10-42.667c-6.345-12.901-43.4-24.867-43.4-24.867-7.142 14.662-46.3387 14.662-53.1807-.005 0 0-37.0726 11.968-43.4193 24.872z" fill="url(#e)"/></mask><g clip-path="url(#g)"><path d="m121.333 125.856v.287c.079 6.079 5.19 10.65 15.333 13.713-12.222 8.889-24.444 16-36.6662 16-12.222 0-24.4447-7.111-36.6667-16 10.0742-3.067 15.1853-7.644 15.3333-13.733 0-1.086-.008-2.627-.0153-5.521 0-.46-.0011-.93-.0033-1.412-.7287.103-.6667.037 0-.148-.02-7.613-.0527-17.849-.098-28.2527-9.5547-12.3847-6.0447-26.904-3.0507-26.542 3.67.4473 35.4719-29.7313 41.5719-31.2787 6.1-1.5473 21.595 3.448 24.262 17.3647s3.781 48.9953-6.333 62.9997c-2.878 3.986-7.412 5.545-13.6 4.677-.009 2.913-.026 4.547-.067 7.846z" fill="url(#a)"/><path d="m121.333 118c-14.667-1.667-24-8-24-8s10.093 13.411 24 16z" fill="#d39c72"/><path d="m73.6668 91c-4.5933-11.0467-23-33.5447-7.1333-47.5447 5.3333-26 34.7995-23.122 54.4665-17.122 13.218 4.0327 23.2 12 25.333 6 13.334 11.122 6.656 22-2.133 25.122-7.977 2.8333-21.467 5.6667-44.4038 3-4.0974-.4767-3.2394 12.072-5.4287 13.4287-3.2847 2.0353-5.834-10.762-14.8394-6.9194-9.0053 3.8427-3.6613 21.66 6.0054 21.66 3.3333 0 5 9.1647-4 13.4984-6.5333 3.21-4.882-3.945-7.8667-11.123z" fill="url(#c)"/><path d="m30 160.205c-6.3467 12.905-10 42.667-10 42.667h160s-3.655-29.765-10-42.667c-6.345-12.901-43.4-24.867-43.4-24.867-7.142 14.662-46.3387 14.662-53.1807-.005 0 0-37.0726 11.968-43.4193 24.872z" fill="url(#d)"/><g mask="url(#h)"><path d="m186.667 189.333v-5.333h-173.3334v5.333zm0-13.333v-5.333h-173.3334v5.333zm0-13.333v-5.334h-173.3334v5.334z" fill="url(#f)"/></g></g></svg>

<svg width="200" height="200" viewBox="0 0 200 200" fill="none" xmlns="http://www.w3.org/2000/svg">
<g clip-path="url(#clip0_253_3129)">
<path d="M121.333 125.856V126.143C121.412 132.222 126.523 136.793 136.666 139.856C124.444 148.745 112.222 155.856 99.9998 155.856C87.7778 155.856 75.5551 148.745 63.3331 139.856C73.4073 136.789 78.5184 132.212 78.6664 126.123C78.6664 125.037 78.6584 123.496 78.6511 120.602C78.6511 120.142 78.65 119.672 78.6478 119.19C77.9191 119.293 77.9811 119.227 78.6478 119.042C78.6278 111.429 78.5951 101.193 78.5498 90.7893C68.9951 78.4046 72.5051 63.8853 75.4991 64.2473C79.1691 64.6946 110.971 34.516 117.071 32.9686C123.171 31.4213 138.666 36.4166 141.333 50.3333C144 64.25 145.114 99.3286 135 113.333C132.122 117.319 127.588 118.878 121.4 118.01C121.391 120.923 121.374 122.557 121.333 125.856Z" fill="url(#paint0_linear_253_3129)"/>
<path d="M121.333 118C106.666 116.333 97.333 110 97.333 110C97.333 110 107.426 123.411 121.333 126V118Z" fill="#D39C72"/>
<path d="M73.6668 91C69.0735 79.9533 50.6668 57.4553 66.5335 43.4553C71.8668 17.4553 101.333 20.3333 121 26.3333C134.218 30.366 144.2 38.3333 146.333 32.3333C159.667 43.4553 152.989 54.3333 144.2 57.4553C136.223 60.2886 122.733 63.122 99.7962 60.4553C95.6988 59.9786 96.5568 72.5273 94.3675 73.884C91.0828 75.9193 88.5335 63.122 79.5281 66.9646C70.5228 70.8073 75.8668 88.6246 85.5335 88.6246C88.8668 88.6246 90.5335 97.7893 81.5335 102.123C75.0002 105.333 76.6515 98.178 73.6668 91Z" fill="url(#paint1_linear_253_3129)"/>
<path d="M30 160.205C23.6533 173.11 20 202.872 20 202.872H180C180 202.872 176.345 173.107 170 160.205C163.655 147.304 126.6 135.338 126.6 135.338C119.458 150 80.2613 150 73.4193 135.333C73.4193 135.333 36.3467 147.301 30 160.205Z" fill="url(#paint2_linear_253_3129)"/>
<mask id="mask0_253_3129" style="mask-type:alpha" maskUnits="userSpaceOnUse" x="20" y="135" width="160" height="68">
<path d="M30 160.205C23.6533 173.11 20 202.872 20 202.872H180C180 202.872 176.345 173.107 170 160.205C163.655 147.304 126.6 135.338 126.6 135.338C119.458 150 80.2613 150 73.4193 135.333C73.4193 135.333 36.3467 147.301 30 160.205Z" fill="url(#paint3_linear_253_3129)"/>
</mask>
<g mask="url(#mask0_253_3129)">
<path d="M186.667 189.333V184H13.3336V189.333H186.667ZM186.667 176V170.667H13.3336V176H186.667ZM186.667 162.667V157.333H13.3336V162.667H186.667Z" fill="url(#paint4_linear_253_3129)"/>
</g>
</g>
<defs>
<linearGradient id="paint0_linear_253_3129" x1="103.252" y1="32.698" x2="103.252" y2="155.856" gradientUnits="userSpaceOnUse">
<stop stop-color="#D39C72"/>
<stop offset="1" stop-color="#D39C72"/>
</linearGradient>
<linearGradient id="paint1_linear_253_3129" x1="107.04" y1="102.912" x2="107.04" y2="22.2585" gradientUnits="userSpaceOnUse">
<stop/>
<stop offset="1"/>
</linearGradient>
<linearGradient id="paint2_linear_253_3129" x1="100" y1="202.872" x2="100" y2="135.333" gradientUnits="userSpaceOnUse">
<stop/>
<stop offset="1"/>
</linearGradient>
<linearGradient id="paint3_linear_253_3129" x1="100" y1="202.872" x2="100" y2="135.333" gradientUnits="userSpaceOnUse">
<stop stop-color="#E6864E"/>
<stop offset="1" stop-color="#E67240"/>
</linearGradient>
<linearGradient id="paint4_linear_253_3129" x1="100" y1="157.333" x2="100" y2="189.333" gradientUnits="userSpaceOnUse">
<stop/>
<stop offset="1"/>
</linearGradient>
<clipPath id="clip0_253_3129">
<rect width="200" height="200" rx="100" transform="matrix(-1 0 0 1 200 0)" fill="white"/>
</clipPath>
</defs>
</svg>
